images/logob.svg

<svg width="106" height="61" fill="none" xmlns="http://www.w3.org/2000/svg"><path fill-rule="evenodd" clip-rule="evenodd" d="M50.1136 6.6477h-.1366c-.2099-.0128-.4199-.0179-.6299-.023h-.4553c-.3972 0-.802.0102-1.2042.0306a.6282.6282 0 0 0-.091 0A28.2753 28.2753 0 0 0 37.0805 9.338l-.4326.2085v22.1411l1.0119-.3433c.8879-.3051 1.834-.5798 2.813-.8341a34.3342 34.3342 0 0 1 8.0952-1.0756v2.9091a24.2795 24.2795 0 0 0-1.065.0305h-.0835a32.3607 32.3607 0 0 0-6.2282.9561 31.6346 31.6346 0 0 0-7.4197 2.8913V7.825a29.7267 29.7267 0 0 1 7.784-3.1659 29.7929 29.7929 0 0 1 7.3362-.946h.4275c.511.0128 1.0094.0356 1.4774.0712a21.0904 21.0904 0 0 1 3.6554.5824V7.23a22.6239 22.6239 0 0 0-3.5416-.534 88.8025 88.8025 0 0 1-.0726-.0062c-.2468-.021-.4939-.0421-.7243-.0421Zm5.0392 2.9268c.6349.0483 1.2927.0712 1.958.0712a31.4667 31.4667 0 0 0 7.7131-.9892 31.7771 31.7771 0 0 0 7.4172-2.8938v27.8906a29.8153 29.8153 0 0 1-7.7865 3.166 29.9426 29.9426 0 0 1-7.3362.9434 22.4048 22.4048 0 0 1-5.5654-.6561V9.0354c.43.0992.8727.1907 1.323.267.7387.1246 1.5179.2162 2.2768.2721Zm14.1943.2162-1.0119.3407a44.5405 44.5405 0 0 1-2.8131.8417 34.2628 34.2628 0 0 1-8.4063 1.0782c-.6602 0-1.2673-.0178-1.8542-.0559l-.807-.0534V34.7188l.6931.0611a22.8513 22.8513 0 0 0 1.9732.0839 26.8884 26.8884 0 0 0 6.6203-.857 27.7638 27.7638 0 0 0 5.1733-1.8589l.4326-.2085V9.7907Z" fill="#AFB1B8"/><path d="M35.7371 45.9255a1.4924 1.4924 0 0 0-.5147-.3478 1.4862 1.4862 0 0 0-.611-.1074 1.676 1.676 0 0 0-.6501.1221 1.503 1.503 0 0 0-.506.3331 1.4645 1.4645 0 0 0-.3263.5086 1.65 1.65 0 0 0-.1164.6281v3.794a1.789 1.789 0 0 0 .1493.7782c.0895.1944.2188.3677.3794.5085.1517.1277.3297.2198.5212.2696a2.112 2.112 0 0 0 .5666.0788 1.418 1.418 0 0 0 .6122-.1322 1.601 1.601 0 0 0 .506-.3509 1.6498 1.6498 0 0 0 .3313-.5086 1.5338 1.5338 0 0 0 .1215-.6052v-.4247h-.9917v.3382a.8796.8796 0 0 1-.0582.3382.6066.6066 0 0 1-.1442.2136.6048.6048 0 0 1-.2074.1094.6973.6973 0 0 1-.2074.0356.5041.5041 0 0 1-.4655-.2035.8978.8978 0 0 1-.1315-.5085v-3.5372a1.2073 1.2073 0 0 1 .1214-.5671.5046.5046 0 0 1 .4857-.2289.5268.5268 0 0 1 .4427.2136.806.806 0 0 1 .1644.5086v.3281h.9816v-.3866a1.7906 1.7906 0 0 0-.1215-.6637 1.5626 1.5626 0 0 0-.3314-.534ZM41.6289 45.8822a1.7652 1.7652 0 0 0-1.1282-.417 1.7366 1.7366 0 0 0-.592.1068 1.6058 1.6058 0 0 0-.5236.3102 1.5597 1.5597 0 0 0-.3846.5315 1.7718 1.7718 0 0 0-.1442.7349v3.6389c-.0068.256.0424.5104.1442.7451.0898.1957.221.3693.3846.5086.1516.1407.3296.2497.5236.3204.1897.0698.39.1059.592.1068a1.7115 1.7115 0 0 0 .5919-.1068 1.6543 1.6543 0 0 0 .5363-.3204 1.5536 1.5536 0 0 0 .3744-.5086 1.754 1.754 0 0 0 .1442-.7451v-3.6389a1.7702 1.7702 0 0 0-.1442-.7349 1.6411 1.6411 0 0 0-.3744-.5315Zm-.4629 4.9053a.6524.6524 0 0 1-.1973.5264.7261.7261 0 0 1-.9335 0 .6526.6526 0 0 1-.1973-.5264v-3.6389a.6526.6526 0 0 1 .1973-.5264.7264.7264 0 0 1 .4667-.17.7267.7267 0 0 1 .4668.17.6532.6532 0 0 1 .1973.5264v3.6389ZM49.3673 52.4125v-6.8887h-.9537l-1.2522 3.6465h-.0177l-1.2624-3.6465h-.9436v6.8887h.9841v-4.1907h.0177l.9638 2.9625h.4908l.9714-2.9625h.0177v4.1907h.9841ZM54.9581 46.0068a1.367 1.367 0 0 0-.5566-.3764 2.1838 2.1838 0 0 0-.7134-.1068H52.226v6.8888h.9815V49.722h.5059c.3063.0139.611-.0508.8854-.1882a1.4301 1.4301 0 0 0 .5389-.5264c.1135-.1832.19-.3871.2251-.6001a4.8985 4.8985 0 0 0 .0531-.7832 3.923 3.923 0 0 0-.0961-.9841 1.467 1.467 0 0 0-.3617-.6332Zm-.506 2.1004a.8663.8663 0 0 1-.0911.3586.553.553 0 0 1-.2529.2416 1.0071 1.0071 0 0 1-.463.0864h-.4477v-2.342h.5059a.941.941 0 0 1 .4427.0865.5552.5552 0 0 1 .2302.2543c.0537.121.0829.2515.086.3839v.4578c0 .1602.0101.3255 0 .4729h-.0101ZM59.6077 45.5238h-.8045l-1.5178 6.8887h.9815l.2884-1.4799h1.3382l.2884 1.4799h.9816l-1.5558-6.8887Zm-.9057 4.4704.4832-2.4971h.0177l.4807 2.4971h-.9816ZM65.9497 49.6738h-.0177l-1.4824-4.15h-.9436v6.8887h.9815v-4.1424h.0203l1.5001 4.1424h.9233v-6.8887h-.9815v4.15ZM71.9476 45.5238l-.7893 2.7387h-.0202l-.7893-2.7387h-1.0397l1.3483 3.9771v2.9116h.9816v-2.9116l1.3483-3.9771h-1.0397ZM33 54.3577h.4731v1.3274h.3212v-1.3274h.4706v-.2721H33v.2721ZM36.9767 54.0856l-.6198 1.5995h.3415l.1316-.3637h.6375l.1366.3637h.3491l-.635-1.5995h-.3415Zm-.0506.9663.2176-.5925.2175.5925h-.4351ZM40.9079 55.0953h.3694v.2059a.6122.6122 0 0 1-.3795.1348.4046.4046 0 0 1-.339-.1526.6689.6689 0 0 1-.1189-.417c0-.356.1543-.534.4604-.534a.3379.3379 0 0 1 .2277.0598.3413.3413 0 0 1 .1341.1945l.3162-.061c-.0683-.3128-.2934-.4705-.678-.4705a.8043.8043 0 0 0-.559.206.7833.7833 0 0 0-.2302.6154.872.872 0 0 0 .2049.6001.7756.7756 0 0 0 .278.1839.7716.7716 0 0 0 .3291.05.961.961 0 0 0 .678-.2542v-.6307h-.6932v.2696ZM44.9226 54.0856h-.3238v1.5995h1.1206v-.2721h-.7968v-1.3274ZM48.3175 54.0856h-.3238v1.5995h.3238v-1.5995ZM51.6365 55.1536l-.6552-1.068h-.3137v1.5995h.301v-1.0452l.6426 1.0452h.3213v-1.5995h-.296v1.068ZM54.6368 54.9807h.7969v-.2721h-.7969v-.3509h.8576v-.2721H54.313v1.5995h1.2143v-.2721h-.8905v-.4323ZM61.9122 54.7162h-.6299v-.6306h-.3212v1.5995h.3212v-.6993h.6299v.6993h.3213v-1.5995h-.3213v.6306ZM64.9302 54.9807h.7994v-.2721h-.7994v-.3509h.8601v-.2721h-1.1814v1.5995h1.2117v-.2721h-.8904v-.4323ZM69.0233 54.9807c.2782-.0432.4199-.1907.4199-.445a.3828.3828 0 0 0-.1569-.356.9048.9048 0 0 0-.468-.0941h-.6779v1.5995h.3213v-.6688h.0632a.431.431 0 0 1 .1998.0356.3358.3358 0 0 1 .1139.117l.3491.5086h.3845l-.1948-.3128a1.1151 1.1151 0 0 0-.3541-.384Zm-.3239-.2212h-.2377v-.4018h.2529a.84.84 0 0 1 .3264.0382.208.208 0 0 1 .0703.1664.2095.2095 0 0 1-.0855.1591.9126.9126 0 0 1-.3264.0381ZM72.1096 54.9807h.7968v-.2721h-.7968v-.3509h.8601v-.2721h-1.1839v1.5995H73v-.2721h-.8904v-.4323Z" fill="#AFB1B8"/></svg>

<svg width="106" height="61" viewBox="0 0 106 61" fill="none" xmlns="http://www.w3.org/2000/svg">
<path fill-rule="evenodd" clip-rule="evenodd" d="M50.1136 6.64766H49.977C49.7671 6.63494 49.5571 6.62985 49.3471 6.62477H49.3471H49.3269H48.8918C48.4946 6.62477 48.0898 6.63494 47.6876 6.65528C47.6573 6.65308 47.6269 6.65308 47.5966 6.65528C43.9522 6.86177 40.3817 7.77265 37.0805 9.33806L36.6479 9.54658V31.6877L37.6598 31.3444C38.5477 31.0393 39.4938 30.7646 40.4728 30.5103C43.1193 29.8309 45.8367 29.4699 48.568 29.4347V32.3438C48.2062 32.3463 47.8546 32.3565 47.503 32.3743H47.4195C45.3175 32.4896 43.2317 32.8098 41.1913 33.3304C38.6072 33.9774 36.1143 34.9488 33.7716 36.2217V7.82502C36.2047 6.40588 38.8253 5.34001 41.5556 4.6591C43.9527 4.04019 46.4169 3.72244 48.8918 3.71313H49.3193C49.8303 3.72585 50.3287 3.74874 50.7967 3.78434C52.0297 3.87091 53.2528 4.06576 54.4521 4.36666V7.22998C53.2874 6.95864 52.1032 6.78009 50.9105 6.69597C50.8863 6.69392 50.8621 6.69186 50.8379 6.68979C50.5911 6.66874 50.344 6.64766 50.1136 6.64766ZM55.1528 9.57452C55.7877 9.62283 56.4455 9.64572 57.1108 9.64572C59.7125 9.63621 62.3031 9.30397 64.8239 8.65653C67.4068 8.0071 69.8986 7.03491 72.2411 5.7627V33.6533C69.8067 35.0716 67.1853 36.1375 64.4546 36.8193C62.0571 37.4358 59.5931 37.7527 57.1184 37.7627C55.2433 37.7778 53.3737 37.5574 51.553 37.1066V9.03542C51.983 9.1346 52.4257 9.22614 52.876 9.30243C53.6147 9.42703 54.3939 9.51857 55.1528 9.57452ZM69.3471 9.79067L68.3352 10.1314C67.4042 10.4442 66.4657 10.7239 65.5221 10.9731C62.7749 11.6791 59.9514 12.0412 57.1158 12.0513C56.4556 12.0513 55.8485 12.0335 55.2616 11.9954L54.4546 11.942V32.031V34.7188L55.1477 34.7799C55.7903 34.8358 56.4531 34.8638 57.1209 34.8638C59.3544 34.8543 61.5781 34.5664 63.7412 34.0068C65.5223 33.56 67.2552 32.9374 68.9145 32.1479L69.3471 31.9394V9.79067Z" fill="#AFB1B8"/>
<path d="M35.7371 45.9255C35.5917 45.7746 35.4163 45.6562 35.2224 45.5777C35.0284 45.4993 34.8203 45.4627 34.6114 45.4703C34.3888 45.4674 34.1678 45.5089 33.9613 45.5924C33.7719 45.6678 33.5998 45.7812 33.4553 45.9255C33.3125 46.0703 33.2013 46.2436 33.129 46.4341C33.0497 46.6338 33.0101 46.8472 33.0126 47.0622V50.8562C33.0036 51.1236 33.0546 51.3895 33.1619 51.6344C33.2514 51.8288 33.3807 52.0021 33.5413 52.1429C33.693 52.2706 33.871 52.3627 34.0625 52.4125C34.2469 52.4643 34.4376 52.4909 34.6291 52.4913C34.8404 52.4934 35.0495 52.4483 35.2413 52.3591C35.4309 52.2761 35.6028 52.1569 35.7473 52.0082C35.8881 51.8608 36.0005 51.6883 36.0786 51.4996C36.1597 51.3083 36.201 51.1023 36.2001 50.8944V50.4697H35.2084V50.8079C35.2114 50.9234 35.1916 51.0383 35.1502 51.1461C35.1179 51.2269 35.0688 51.2997 35.006 51.3597C34.9446 51.4094 34.8742 51.4465 34.7986 51.4691C34.7316 51.4914 34.6617 51.5034 34.5912 51.5047C34.5026 51.515 34.413 51.5016 34.3312 51.4659C34.2495 51.4301 34.1786 51.3734 34.1257 51.3012C34.0322 51.1488 33.9864 50.9716 33.9942 50.7927V47.2555C33.988 47.0593 34.0297 46.8646 34.1156 46.6884C34.1671 46.6083 34.2399 46.5444 34.3258 46.5039C34.4117 46.4635 34.5071 46.4481 34.6013 46.4595C34.6868 46.4565 34.7717 46.4743 34.8488 46.5115C34.9259 46.5487 34.9929 46.6042 35.044 46.6731C35.155 46.8188 35.213 46.9983 35.2084 47.1817V47.5098H36.19V47.1232C36.1919 46.8962 36.1507 46.671 36.0685 46.4595C35.9953 46.2608 35.8825 46.0791 35.7371 45.9255Z" fill="#AFB1B8"/>
<path d="M41.6289 45.8822C41.3127 45.6152 40.9136 45.4677 40.5007 45.4652C40.2987 45.4661 40.0984 45.5022 39.9087 45.572C39.7161 45.641 39.5384 45.7463 39.3851 45.8822C39.2208 46.0299 39.0897 46.2111 39.0005 46.4137C38.9006 46.6455 38.8515 46.8961 38.8563 47.1486V50.7875C38.8495 51.0435 38.8987 51.2979 39.0005 51.5326C39.0903 51.7283 39.2215 51.9019 39.3851 52.0412C39.5367 52.1819 39.7147 52.2909 39.9087 52.3616C40.0984 52.4314 40.2987 52.4675 40.5007 52.4684C40.7027 52.468 40.9031 52.4319 41.0926 52.3616C41.29 52.2899 41.4719 52.1812 41.6289 52.0412C41.7871 51.8993 41.9145 51.7261 42.0033 51.5326C42.1051 51.2979 42.1544 51.0435 42.1475 50.7875V47.1486C42.1524 46.8961 42.1032 46.6455 42.0033 46.4137C41.9151 46.2132 41.7878 46.0325 41.6289 45.8822ZM41.166 50.7875C41.1743 50.8845 41.1609 50.9821 41.1268 51.0732C41.0926 51.1643 41.0386 51.2466 40.9687 51.3139C40.8377 51.4238 40.6725 51.4839 40.5019 51.4839C40.3313 51.4839 40.1662 51.4238 40.0352 51.3139C39.9652 51.2466 39.9112 51.1643 39.8771 51.0732C39.8429 50.9821 39.8295 50.8845 39.8379 50.7875V47.1486C39.8295 47.0516 39.8429 46.954 39.8771 46.8629C39.9112 46.7718 39.9652 46.6896 40.0352 46.6222C40.1662 46.5124 40.3313 46.4522 40.5019 46.4522C40.6725 46.4522 40.8377 46.5124 40.9687 46.6222C41.0386 46.6896 41.0926 46.7718 41.1268 46.8629C41.1609 46.954 41.1743 47.0516 41.166 47.1486V50.7875Z" fill="#AFB1B8"/>
<path d="M49.3673 52.4125V45.5238H48.4136L47.1614 49.1703H47.1437L45.8813 45.5238H44.9377V52.4125H45.9218V48.2218H45.9395L46.9033 51.1843H47.3941L48.3655 48.2218H48.3832V52.4125H49.3673Z" fill="#AFB1B8"/>
<path d="M54.9581 46.0068C54.8065 45.8368 54.6153 45.7075 54.4015 45.6304C54.1712 45.5555 53.9302 45.5194 53.6881 45.5236H52.226V52.4124H53.2075V49.722H53.7134C54.0197 49.7359 54.3244 49.6712 54.5988 49.5338C54.822 49.4099 55.0081 49.2281 55.1377 49.0074C55.2512 48.8242 55.3277 48.6203 55.3628 48.4073C55.4014 48.1481 55.4192 47.8862 55.4159 47.6241C55.4255 47.2933 55.3932 46.9626 55.3198 46.64C55.2543 46.4016 55.1299 46.1838 54.9581 46.0068ZM54.4521 48.1072C54.4479 48.232 54.4168 48.3543 54.361 48.4658C54.3049 48.5717 54.2162 48.6565 54.1081 48.7074C53.9627 48.7724 53.8041 48.802 53.6451 48.7938H53.1974V46.4518H53.7033C53.8557 46.4443 54.0075 46.474 54.146 46.5383C54.2475 46.5965 54.3281 46.6855 54.3762 46.7926C54.4299 46.9136 54.4591 47.0441 54.4622 47.1765C54.4622 47.3215 54.4622 47.4741 54.4622 47.6343C54.4622 47.7945 54.4723 47.9598 54.4622 48.1072H54.4521Z" fill="#AFB1B8"/>
<path d="M59.6077 45.5238H58.8032L57.2854 52.4125H58.2669L58.5553 50.9326H59.8935L60.1819 52.4125H61.1635L59.6077 45.5238ZM58.702 49.9942L59.1852 47.4971H59.2029L59.6836 49.9942H58.702Z" fill="#AFB1B8"/>
<path d="M65.9497 49.6738H65.932L64.4496 45.5238H63.506V52.4125H64.4875V48.2701H64.5078L66.0079 52.4125H66.9312V45.5238H65.9497V49.6738Z" fill="#AFB1B8"/>
<path d="M71.9476 45.5238L71.1583 48.2625H71.1381L70.3488 45.5238H69.3091L70.6574 49.5009V52.4125H71.639V49.5009L72.9873 45.5238H71.9476Z" fill="#AFB1B8"/>
<path d="M33 54.3577H33.4731V55.6851H33.7943V54.3577H34.2649V54.0856H33V54.3577Z" fill="#AFB1B8"/>
<path d="M36.9767 54.0856L36.3569 55.6851H36.6984L36.83 55.3214H37.4675L37.6041 55.6851H37.9532L37.3182 54.0856H36.9767ZM36.9261 55.0519L37.1437 54.4594L37.3612 55.0519H36.9261Z" fill="#AFB1B8"/>
<path d="M40.9079 55.0953H41.2773V55.3012C41.1694 55.3877 41.0358 55.4352 40.8978 55.436C40.8333 55.4396 40.7689 55.4277 40.7099 55.4011C40.6509 55.3746 40.5991 55.3342 40.5588 55.2834C40.474 55.1617 40.4322 55.0149 40.4399 54.8664C40.4399 54.5104 40.5942 54.3324 40.9003 54.3324C40.9809 54.3244 41.0617 54.3456 41.128 54.3922C41.1944 54.4389 41.2419 54.5079 41.2621 54.5867L41.5783 54.5257C41.51 54.2129 41.2849 54.0552 40.9003 54.0552C40.6947 54.0497 40.4947 54.1234 40.3413 54.2612C40.2607 54.3408 40.1983 54.4371 40.1586 54.5433C40.1188 54.6496 40.1026 54.7633 40.1111 54.8766C40.1017 55.0954 40.1749 55.3097 40.316 55.4767C40.3943 55.5575 40.4892 55.6202 40.594 55.6606C40.6988 55.701 40.8111 55.7181 40.9231 55.7106C41.1734 55.7176 41.4165 55.6264 41.6011 55.4564V54.8257H40.9079V55.0953Z" fill="#AFB1B8"/>
<path d="M44.9226 54.0856H44.5988V55.6851H45.7194V55.413H44.9226V54.0856Z" fill="#AFB1B8"/>
<path d="M48.3175 54.0856H47.9937V55.6851H48.3175V54.0856Z" fill="#AFB1B8"/>
<path d="M51.6365 55.1536L50.9813 54.0856H50.6676V55.6851H50.9686V54.6399L51.6112 55.6851H51.9325V54.0856H51.6365V55.1536Z" fill="#AFB1B8"/>
<path d="M54.6368 54.9807H55.4337V54.7086H54.6368V54.3577H55.4944V54.0856H54.313V55.6851H55.5273V55.413H54.6368V54.9807Z" fill="#AFB1B8"/>
<path d="M61.9122 54.7162H61.2823V54.0856H60.9611V55.6851H61.2823V54.9858H61.9122V55.6851H62.2335V54.0856H61.9122V54.7162Z" fill="#AFB1B8"/>
<path d="M64.9302 54.9807H65.7296V54.7086H64.9302V54.3577H65.7903V54.0856H64.6089V55.6851H65.8206V55.413H64.9302V54.9807Z" fill="#AFB1B8"/>
<path d="M69.0233 54.9807C69.3015 54.9375 69.4432 54.79 69.4432 54.5357C69.4513 54.4677 69.441 54.3987 69.4134 54.3361C69.3858 54.2735 69.3419 54.2194 69.2863 54.1797C69.1415 54.107 68.9799 54.0745 68.8183 54.0856H68.1404V55.6851H68.4617V55.0163H68.5249C68.5934 55.0121 68.6619 55.0243 68.7247 55.0519C68.7717 55.0809 68.8108 55.1211 68.8386 55.1689L69.1877 55.6775H69.5722L69.3774 55.3647C69.2913 55.2103 69.1699 55.0787 69.0233 54.9807ZM68.6994 54.7595H68.4617V54.3577H68.7146C68.8248 54.3488 68.9357 54.3618 69.041 54.3959C69.0644 54.4165 69.0828 54.4422 69.095 54.471C69.1072 54.4998 69.1127 54.531 69.1113 54.5623C69.1098 54.5936 69.1014 54.6241 69.0866 54.6516C69.0718 54.6792 69.051 54.703 69.0258 54.7214C68.9202 54.7537 68.8096 54.7667 68.6994 54.7595Z" fill="#AFB1B8"/>
<path d="M72.1096 54.9807H72.9064V54.7086H72.1096V54.3577H72.9697V54.0856H71.7858V55.6851H73V55.413H72.1096V54.9807Z" fill="#AFB1B8"/>
</svg>
